assets/icons/audio-help.svg

<svg width="33" height="27" viewBox="0 0 33 27" fill="none" xmlns="http://www.w3.org/2000/svg">
<path fill-rule="evenodd" clip-rule="evenodd" d="M17.3782 0.325149C16.3803 -0.191036 15.1758 -0.0877987 14.2467 0.600447L6.36628 6.45054C6.29745 6.51936 6.1598 6.55378 6.05657 6.55378H2.99387C1.34208 6.55378 0 7.89586 0 9.54765V17.4625C0 19.1143 1.34208 20.4563 2.99387 20.4563H6.05657C6.1598 20.4563 6.26304 20.4908 6.36628 20.5596L14.2467 26.4097C14.7629 26.7882 15.3823 26.9947 16.0361 26.9947C16.4835 26.9947 16.9653 26.8915 17.3782 26.685C18.3762 26.1688 19.03 25.1364 19.03 24.0008V3.00931C18.9956 1.8737 18.3762 0.841334 17.3782 0.325149ZM16.3458 24.0008C16.3458 24.1729 16.2426 24.2417 16.1738 24.2761C16.105 24.3105 15.9673 24.3449 15.8641 24.2417L7.98366 18.3916C7.43306 17.9787 6.77922 17.7722 6.09098 17.7722H3.02828C2.85622 17.7722 2.71857 17.6345 2.71857 17.4625V9.54765C2.71857 9.37559 2.85622 9.23794 3.02828 9.23794H6.09098C6.77922 9.23794 7.43306 9.03146 7.98366 8.61851L15.8641 2.76842C16.0017 2.66519 16.105 2.6996 16.1738 2.73401C16.2426 2.76842 16.3458 2.83725 16.3458 3.00931V24.0008ZM28.4246 1.42637C27.9428 0.84136 27.1169 0.772536 26.5319 1.25431C25.9469 1.73608 25.878 2.56198 26.3598 3.14699C28.7343 6.00321 30.0419 9.71974 30.0419 13.5051C30.0419 17.2904 28.7343 21.007 26.3598 23.8976C25.878 24.4826 25.9813 25.3085 26.5663 25.7903C26.8072 25.9968 27.1169 26.1 27.4266 26.1C27.8051 26.1 28.1837 25.9279 28.459 25.6182C31.212 22.2458 32.7261 17.9443 32.7261 13.5395C32.7261 9.10031 31.212 4.79878 28.4246 1.42637ZM22.6777 5.69346C23.2971 5.28051 24.123 5.41816 24.536 6.03758C26.0501 8.23997 26.876 10.8209 26.876 13.4362C26.876 16.1204 26.0501 18.7013 24.536 20.9037C24.2607 21.2822 23.8477 21.4887 23.4348 21.4887C23.1595 21.4887 22.9186 21.4199 22.6777 21.2478C22.0583 20.8349 21.9206 20.009 22.3336 19.3896C23.538 17.6689 24.1919 15.6042 24.1919 13.4706C24.1919 11.3371 23.538 9.30675 22.3336 7.55172C21.9206 6.9323 22.0583 6.10641 22.6777 5.69346Z" fill="white"/>
</svg>

<svg xmlns="http://www.w3.org/2000/svg" width="33" height="27" fill="none" xmlns:v="https://vecta.io/nano"><path fill-rule="evenodd" d="M17.378.325c-.998-.516-2.202-.413-3.13.275l-7.88 5.85c-.07.07-.206.103-.3.103H2.994C1.342 6.554 0 7.896 0 9.548v7.915c0 1.652 1.342 2.994 2.994 2.994h3.063c.103 0 .206.035.3.103l7.88 5.85a3.01 3.01 0 0 0 1.789.585c.447 0 .93-.103 1.342-.3a3.04 3.04 0 0 0 1.652-2.684V3.01C18.996 1.874 18.376.84 17.378.325zM16.346 24c0 .172-.103.24-.172.275s-.207.07-.3-.034l-7.88-5.85a3.12 3.12 0 0 0-1.893-.619H3.028c-.172 0-.3-.138-.3-.3V9.548c0-.172.138-.3.3-.3H6.09c.688 0 1.342-.206 1.893-.62l7.88-5.85c.138-.103.24-.07.3-.034s.172.103.172.275V24zm12.08-22.574c-.482-.585-1.308-.654-1.893-.172s-.654 1.308-.172 1.893c2.375 2.856 3.682 6.573 3.682 10.358s-1.308 7.502-3.682 10.393c-.482.585-.378 1.41.206 1.893a1.32 1.32 0 0 0 .86.31c.378 0 .757-.172 1.032-.482 2.753-3.372 4.267-7.674 4.267-12.08 0-4.44-1.514-8.74-4.302-12.113zm-5.747 4.267c.62-.413 1.445-.275 1.858.344 1.514 2.202 2.34 4.783 2.34 7.4 0 2.684-.826 5.265-2.34 7.468-.275.378-.688.585-1.1.585a1.24 1.24 0 0 1-.757-.241c-.62-.413-.757-1.24-.344-1.858a10.32 10.32 0 0 0 1.858-5.919c0-2.133-.654-4.164-1.858-5.92-.413-.62-.275-1.445.344-1.858z" fill="#fff"/></svg>
